X: 10612
M: 2/4
L: 1/16
K: Bb
(de) |\
fbfd Bdgf | f=e_ec ABcA | BABc dBed | cBcd cde=e |\
fbfd Bdgf | f=e_ec ABcA | dfBd ceAc | B2B2B2 :|
|: F2 |\
bagf _edcB | Acgf f=e_ec | dfBd ceAc | B2B2B2 :|


